X:59
M:C|
L:1/8
K:G
ea^ca eaca|edef gage|dgBg dgBg|dgBg f2 df|aefd edBg|A/A/A Bd e2g2||

